build/img/icons/hammer.svg

<svg width="26" height="26" viewBox="0 0 26 26" fill="none" xmlns="http://www.w3.org/2000/svg">
<path d="M2.62368 10.9996L6.15868 14.5346L14.1137 6.57958L10.5774 3.04458L2.62368 10.9983V10.9996ZM18.5324 18.0696L12.3449 11.8821L11.4624 12.7671L17.6499 18.9546L18.5324 18.0696ZM20.3012 19.8383L19.4174 20.7221L21.6262 22.9308C21.7441 23.0447 21.9019 23.1077 22.0658 23.1063C22.2297 23.1048 22.3864 23.0391 22.5023 22.9232C22.6182 22.8073 22.6839 22.6506 22.6854 22.4867C22.6868 22.3228 22.6238 22.165 22.5099 22.0471L20.3012 19.8383ZM6.96618 3.11958L8.80993 1.27458C9.04209 1.04233 9.31774 0.85809 9.62112 0.73239C9.9245 0.60669 10.2497 0.541992 10.5781 0.541992C10.9064 0.541992 11.2316 0.60669 11.535 0.73239C11.8384 0.85809 12.114 1.04233 12.3462 1.27458L15.8812 4.81083C16.3499 5.27965 16.6131 5.91542 16.6131 6.57833C16.6131 7.24124 16.3499 7.87701 15.8812 8.34583L14.1137 10.1133L24.2787 20.2783C24.8648 20.8645 25.1941 21.6594 25.1941 22.4883C25.1941 23.3172 24.8648 24.1122 24.2787 24.6983C23.6926 25.2845 22.8976 25.6137 22.0687 25.6137C21.2398 25.6137 20.4448 25.2845 19.8587 24.6983L9.69368 14.5333L7.92618 16.3008C7.45737 16.7695 6.82159 17.0328 6.15868 17.0328C5.49577 17.0328 4.86 16.7695 4.39118 16.3008L0.853685 12.7671C0.621431 12.5349 0.437192 12.2593 0.311492 11.9559C0.185792 11.6525 0.121094 11.3273 0.121094 10.999C0.121094 10.6706 0.185792 10.3454 0.311492 10.042C0.437192 9.73864 0.621431 9.46299 0.853685 9.23083L2.69743 7.38833C2.53009 7.0383 2.47546 6.64498 2.54105 6.26259C2.60665 5.8802 2.78925 5.52758 3.06368 5.25333L4.83243 3.48708C5.10668 3.21265 5.4593 3.03005 5.84169 2.96445C6.22408 2.89885 6.6174 2.95349 6.96743 3.12083L6.96618 3.11958Z" fill="#5CC773"/>
</svg>

<svg width="26" height="26" fill="none" xmlns="http://www.w3.org/2000/svg">
    <path d="m2.624 11 3.535 3.535 7.955-7.955-3.537-3.535-7.953 7.953V11zm15.908 7.07-6.187-6.188-.883.885 6.188 6.188.882-.885zm1.77 1.768-.885.884 2.21 2.209a.625.625 0 0 0 .883-.884L20.3 19.838zM6.965 3.12 8.81 1.275a2.5 2.5 0 0 1 3.536 0l3.535 3.536a2.5 2.5 0 0 1 0 3.535l-1.767 1.767 10.165 10.165a3.126 3.126 0 0 1-4.42 4.42L9.694 14.533l-1.768 1.768a2.5 2.5 0 0 1-3.535 0L.854 12.767a2.5 2.5 0 0 1 0-3.536l1.843-1.843a1.875 1.875 0 0 1 .367-2.135l1.768-1.766a1.875 1.875 0 0 1 2.135-.366V3.12z" fill="#5CC773"/>
</svg>
